X:1
T:Sons of Labour, 87.87 D
T:John Stainer, 1889
T:Sons of Labour, 87.87 D
T:Public Domain
C:John Stainer, 1889
Z:Public Domain
%%score ( 1 2 ) ( 3 4 )
L:1/8
M:4/4
K:D
V:1 treble 
V:2 treble 
V:3 bass 
V:4 bass 
V:1
 [DF]3 [DE] | [DG]2 [DF]2 [CE]2 D2 | [DB]2 [DA]2 [DA]2 [CG]2 | [DF]2 [EA]2 [Fd]2 [Ed]2 | %4
 [Ec]4 [Ec]3 [Ec] | [Ee]2 [Fd]2 [Gc]2 [FB]2 | [EB]2 [GA]2 [FA]2 [EA]2 | [Dd]2 [DF]2 [FA]2 [EG]2 | %8
 [CE]4 F2 [EF]2 | [DF]2 [FB]2 [FA]2 [^E^G]2 | [^E^G]2 F2 [DA]2 [Dd]2 | [Ec]2 [FB]2 [EA]2 [DB]2 | %12
 [Cc]4 E2 z c x | [Fc]2 [Fe]2 [Fd]2 [Ec]2 | [DB]2 [Ec]2 [Dd]2 [DG]2 | [DA]2 [DB]2 [DF]2 [CE]2 | %16
 D4 |] %17
V:2
 x4 | x6 D2 | x8 | x8 | x8 | x8 | x8 | x8 | x4 F2 x2 | x8 | x2 F2 x4 | x8 | x4 c3 ^E2 | x8 | x8 | %15
 x8 | D4 |] %17
V:3
 [D,A,]3 [D,G,] | [D,B,]2 [D,A,]2 [E,G,]2 [F,A,]2 | G,2 [F,A,]2 [E,B,]2 A,2 | %3
 [D,A,]2 [C,A,]2 [B,,A,]2 [E,^G,]2 | [A,,A,]4 A,3 A, | [G,B,]2 [F,A,]2 [E,G,]2 [D,B,]2 | %6
 [C,E]2 [C,E]2 [D,D]2 [C,A,]2 | [B,,F,]2 [A,,A,]2 [G,,B,]2 [G,,B,]2 | [A,,A,]4 [D,A,]2 [C,^A,]2 | %9
 [B,,B,]2 [B,,D]2 [C,C]2 [C,B,]2 | [F,B,]2 [F,A,]2 [F,A,]2 [F,A,]2 | %11
 [E,A,]2 [D,D]2 [E,C]2 [E,^G,]2 | [A,,A,]4 [A,C]2 [G,B,]2 x | [F,^A,]2 [F,A,]2 B,2 [F,A,]2 | %14
 [G,B,]2 [F,^A,]2 [B,,B,]2 [B,,G,]2 | [A,,F,]2 [^G,,E,]2 [A,,F,]2 [A,,^G,]2 | [D,F,]4 |] %17
V:4
 x4 | x8 | G,2 x2 A,2 x2 | x8 | x4 A,3 A, | x8 | x8 | x8 | x8 | x8 | x8 | x8 | x9 | x4 B,2 x2 | %14
 x8 | x8 | x4 |] %17

